logo/stdlib.svg

<?xml version="1.0" encoding="UTF-8"?>
<svg width="512px" height="159px" viewBox="0 0 512 159" version="1.1" xmlns="http://www.w3.org/2000/svg" xmlns:xlink="http://www.w3.org/1999/xlink" preserveAspectRatio="xMidYMid">
    <title>stdlib</title>
    <defs>
        <linearGradient x1="32.9015371%" y1="78.1302971%" x2="85.8888408%" y2="33.9943071%" id="stdlib-linearGradient-1">
            <stop stop-color="#A4681D" offset="0%"></stop>
            <stop stop-color="#E18F2F" offset="31%"></stop>
            <stop stop-color="#F0AD3E" offset="100%"></stop>
        </linearGradient>
        <linearGradient x1="-5.51622512%" y1="75.391885%" x2="87.6031534%" y2="17.0590233%" id="stdlib-linearGradient-2">
            <stop stop-color="#F0AD3E" offset="0%"></stop>
            <stop stop-color="#E18F2F" offset="69%"></stop>
            <stop stop-color="#A4681D" offset="100%"></stop>
        </linearGradient>
        <linearGradient x1="-0.00257204963%" y1="50.0235984%" x2="100.006185%" y2="50.0235984%" id="stdlib-linearGradient-3">
            <stop stop-color="#006991" offset="0%"></stop>
            <stop stop-color="#008BBF" offset="25%"></stop>
            <stop stop-color="#008BBF" offset="62%"></stop>
            <stop stop-color="#00AEEF" offset="100%"></stop>
        </linearGradient>
    </defs>
    <g>
				<path d="M193.71935,48.3477781 C201.960306,48.3477781 209.753217,50.7187488 217.098083,55.46069 L211.455677,66.3942892 C205.632739,62.618461 199.317445,60.7305469 192.509794,60.7305469 C188.927626,60.7305469 186.016705,61.3673282 183.777029,62.6408906 C181.537354,63.9133589 180.417516,65.8231555 180.417516,68.3702804 C180.417516,70.6537209 181.582213,72.3222628 183.911607,73.3759059 C185.523254,74.1658648 187.784812,74.9126056 190.696281,75.6161285 C193.607749,76.3185573 196.183322,77.0209861 198.422997,77.7234148 C200.661579,78.4258436 202.833418,79.2158024 204.938516,80.0932913 C207.043614,80.9718743 209.305719,82.2016717 211.724832,83.7826835 C216.561962,86.943613 218.980527,91.8611614 218.980527,98.5353288 C218.980527,105.209496 216.517103,110.544454 211.590254,114.540201 C206.663406,118.535949 200.348112,120.533822 192.644372,120.533822 C187.449462,120.533822 182.052687,119.612021 176.454045,117.768419 C170.855403,115.923723 165.906125,113.332833 161.606211,109.99575 L168.861906,98.5353288 C177.19258,104.683222 185.254646,107.757168 193.048104,107.757168 C196.45193,107.757168 199.139102,106.988545 201.109623,105.451298 C203.080144,103.915145 204.065404,101.961584 204.065404,99.5906132 C204.065404,96.0773752 199.317992,92.9158987 189.823168,90.1061836 C189.106516,89.8424993 188.5693,89.6663451 188.211521,89.5777209 C173.341257,85.6268326 165.906125,79.0407423 165.906125,69.81945 C165.906125,63.3203427 168.481697,58.1172275 173.632842,54.2101042 C178.782892,50.3018868 185.478395,48.3477781 193.71935,48.3477781 Z M251.407133,27.4029279 L251.407133,49.4014213 L270.218438,49.4014213 L270.218438,61.2573685 L251.407133,61.2573685 L251.407133,96.823569 C251.407133,100.160653 252.303222,102.81719 254.095401,104.793181 C255.886484,106.769173 258.394221,107.757168 261.61861,107.757168 C264.844092,107.757168 267.934451,106.220468 270.889685,103.147069 L277.070401,113.552206 C271.785774,118.206617 265.940954,120.533822 259.535941,120.533822 C253.132023,120.533822 247.667958,118.360341 243.143748,114.01338 C238.620632,109.666418 236.359074,103.804639 236.359074,96.4280425 L236.359074,61.2573685 L227.357154,61.2573685 L227.357154,49.4014213 L236.359074,49.4014213 L236.359074,27.4029279 L251.407133,27.4029279 Z M352.766948,21.7391856 L352.766948,119.480179 L337.718889,119.480179 L337.718889,108.942106 C332.165106,116.669917 324.058181,120.533822 313.398113,120.533822 C304.351881,120.533822 296.469252,117.196739 289.750225,110.522571 C283.032293,103.848404 279.673327,95.06695 279.673327,84.17821 C279.673327,73.2883759 283.122011,64.5939052 290.01938,58.0947979 C296.916749,51.5967847 305.135275,48.3477781 314.674958,48.3477781 C324.214641,48.3477781 331.895951,52.2997606 337.718889,60.2037254 L337.718889,21.7391856 L352.766948,21.7391856 Z M316.623049,61.2573685 C310.621769,61.2573685 305.471172,63.496497 301.171257,67.9747539 C296.872437,72.4541049 294.723027,78.0527467 294.723027,84.7706791 C294.723027,91.4886116 296.917296,96.9554112 301.305835,101.171078 C305.695468,105.38565 310.846065,107.492937 316.757627,107.492937 C322.669188,107.492937 327.685208,105.363768 331.805686,101.10543 C335.926164,96.8459986 337.986402,91.379199 337.986402,84.7050316 C337.986402,78.0308642 335.926164,72.4541049 331.805686,67.9747539 C327.685208,63.496497 322.624329,61.2573685 316.623049,61.2573685 Z" fill="#F0AD3E"></path>
				<path d="M453.956079,21.7391856 L453.956079,61.652895 C459.867641,52.7828171 467.615693,48.3477781 477.200235,48.3477781 C486.784777,48.3477781 494.980873,51.5967847 501.788524,58.0947979 C508.596175,64.5939052 512,73.2440638 512,84.0452737 C512,94.8475778 508.618604,103.629579 501.855813,110.391276 C495.093021,117.152974 487.210392,120.533822 478.207925,120.533822 C469.205457,120.533822 461.121509,116.669917 453.956079,108.942106 L453.956079,119.480179 L438.90802,119.480179 L438.90802,21.7391856 L453.956079,21.7391856 Z M386.401469,21.7391856 L386.401469,119.480179 L371.35341,119.480179 L371.35341,21.7391856 L386.401469,21.7391856 Z M420.154156,49.4014213 L420.154156,119.480179 L405.106097,119.480179 L405.106097,49.4014213 L420.154156,49.4014213 Z M475.050277,61.2573685 C469.048997,61.2573685 463.988118,63.4746145 459.867641,67.9091064 C455.747163,72.3435982 453.686924,77.8979279 453.686924,84.5720953 C453.686924,91.2462627 455.747163,96.7130623 459.867641,100.972494 C463.988118,105.231926 469.004138,107.361642 474.9157,107.361642 C480.828356,107.361642 485.978953,105.253808 490.367492,101.038142 C494.757124,96.823569 496.951941,91.3573165 496.951941,84.639384 C496.951941,77.9203575 494.801984,72.3435982 490.502069,67.9091064 C486.203249,63.4746145 481.052652,61.2573685 475.050277,61.2573685 Z M412.763884,19.498963 C415.361338,19.498963 417.601014,20.4213111 419.48291,22.2660072 C421.363712,24.1096092 422.304114,26.3049726 422.304114,28.8520975 C422.304114,31.3992224 421.363712,33.5945858 419.48291,35.4381878 C417.601014,37.2828839 415.361338,38.2052319 412.763884,38.2052319 C410.166429,38.2052319 407.9273,37.2828839 406.046498,35.4381878 C404.165696,33.5945858 403.225295,31.3992224 403.225295,28.8520975 C403.225295,26.3049726 404.165696,24.1096092 406.046498,22.2660072 C407.9273,20.4213111 410.166429,19.498963 412.763884,19.498963 Z" fill="#00AEEF"></path>
				<g transform="translate(19.605088, 0.000000)">
						<path d="M51.5158245,-3.67332435e-15 L27.2771085,13.9386157 C24.1900326,15.7455645 21.5247421,18.1925768 19.4634091,21.1171751 C16.4961399,25.2496883 16.4961399,30.8149592 19.4634091,34.9474723 C21.5345892,37.8376057 24.1982385,40.2517942 27.2771085,42.0308428 L43.3574755,51.3150473 C42.587758,50.7537608 41.8754821,50.1202619 41.2272125,49.4243979 C35.7078949,43.4636006 36.0673152,34.1597018 42.0281126,28.6420253 C50.9299202,22.7206165 55.1412104,10.0145335 51.5158245,-3.67332435e-15 Z" fill="url(#stdlib-linearGradient-1)"></path>
						<path d="M97.9384883,107.163058 L86.212195,100.391513 C89.6143792,102.305139 91.6839182,105.93709 91.5969352,109.838195 C91.508311,113.739301 89.2779355,117.274421 85.7936919,119.032135 L60.7048401,133.581272 C55.1674694,136.596136 51.6635315,142.340297 51.5158245,148.644102 L51.5158245,158.394405 L98.4406921,131.308226 C102.597823,128.665912 105.074377,124.044325 104.972623,119.117476 C104.869228,114.192269 102.202297,109.677359 97.9384883,107.212294 L97.9384883,107.163058 Z" fill="url(#stdlib-linearGradient-2)"></path>
						<path d="M27.2771085,41.9701188 C24.1982385,40.1910703 21.5345892,37.7768817 19.4634091,34.8867484 C16.4961399,30.7542352 16.4961399,25.1889643 19.4634091,21.0564511 C21.5313068,18.1548295 24.1949561,15.7275114 27.2771085,13.9386157 L8.80388841,24.7064548 C3.38632449,27.9461613 0.0497878465,33.7773048 0,40.0909578 C-0.048683476,46.4029695 3.19758779,52.2849899 8.56427486,55.6100382 L97.9384883,107.212294 C102.202297,109.677359 104.869228,114.192269 104.972623,119.117476 C105.074377,124.044325 102.597823,128.665912 98.4406921,131.308226 L113.777601,122.454013 C119.224706,119.307854 122.577654,113.494764 122.577654,107.205729 C122.577654,100.916694 119.224706,95.1036032 113.777601,91.9574445 L27.2771085,41.9701188 Z" fill="#F0AD3E"></path>
						<path d="M51.5158245,-3.67332435e-15 L27.2771085,13.9386157 C24.1900326,15.7455645 21.5247421,18.1925768 19.4634091,21.1171751 C16.4961399,25.2496883 16.4961399,30.8149592 19.4634091,34.9474723 C21.5345892,37.8376057 24.1982385,40.2517942 27.2771085,42.0308428 L43.3574755,51.3150473 C42.587758,50.7537608 41.8754821,50.1202619 41.2272125,49.4243979 C35.7078949,43.4636006 36.0673152,34.1597018 42.0281126,28.6420253 C50.9299202,22.7206165 55.1412104,10.0145335 51.5158245,-3.67332435e-15 Z" fill="url(#stdlib-linearGradient-1)"></path>
						<path d="M97.9384883,107.163058 L86.212195,100.391513 C89.6143792,102.305139 91.6839182,105.93709 91.5969352,109.838195 C91.508311,113.739301 89.2779355,117.274421 85.7936919,119.032135 L60.7048401,133.581272 C55.1674694,136.596136 51.6635315,142.340297 51.5158245,148.644102 L51.5158245,158.394405 L98.4406921,131.308226 C102.597823,128.665912 105.074377,124.044325 104.972623,119.117476 C104.869228,114.192269 102.202297,109.677359 97.9384883,107.212294 L97.9384883,107.163058 Z" fill="url(#stdlib-linearGradient-2)"></path>
						<path d="M27.2771085,41.9701188 C24.1982385,40.1910703 21.5345892,37.7768817 19.4634091,34.8867484 C16.4961399,30.7542352 16.4961399,25.1889643 19.4634091,21.0564511 C21.5313068,18.1548295 24.1949561,15.7275114 27.2771085,13.9386157 L8.80388841,24.7064548 C3.38632449,27.9461613 0.0497878465,33.7773048 0,40.0909578 C-0.048683476,46.4029695 3.19758779,52.2849899 8.56427486,55.6100382 L97.9384883,107.212294 C102.202297,109.677359 104.869228,114.192269 104.972623,119.117476 C105.074377,124.044325 102.597823,128.665912 98.4406921,131.308226 L113.777601,122.454013 C119.224706,119.307854 122.577654,113.494764 122.577654,107.205729 C122.577654,100.916694 119.224706,95.1036032 113.777601,91.9574445 L27.2771085,41.9701188 Z" fill="#F0AD3E"></path>
				</g>
				<g transform="translate(0.000000, 21.069581)">
						<path d="M26.0046351,91.7178309 C20.6363068,88.3927826 17.3916767,82.5107623 17.4409124,76.1987505 C17.4885069,69.8850976 20.8250435,64.0539541 26.2442486,60.8142476 L8.81154217,70.8402694 C3.35951328,73.9815046 0,79.7962362 0,86.0885537 C0,92.3808712 3.35951328,98.1939616 8.81154217,101.336838 L24.1500918,110.18941 L71.1209127,137.277229 L71.1209127,127.526927 C70.9535114,121.241175 67.4528559,115.519991 61.9335383,112.511692 L36.8085803,98.023278 C36.4540836,97.8427472 36.1110751,97.6425222 35.779555,97.4242441 L26.0046351,91.7178309 Z" fill="#00AEEF"></path>
						<path d="M92.2495761,47.0906276 L114.779815,34.0858483 C120.225279,30.9380483 123.578227,25.1265991 123.578227,18.837564 C123.578227,12.5468877 120.225279,6.73543846 114.779815,3.5892797 L108.653257,0 C110.747414,5.65061272 108.953595,12.0085778 104.213842,15.732435 L71.1209127,34.87526 L26.2442486,60.8011181 C20.8250435,64.0424658 17.4885069,69.8736092 17.4403599,76.185621 C17.3916767,82.499274 20.6363068,88.3812943 26.0046351,91.7047014 L35.8156612,97.3651613 C32.753203,95.3694758 30.9413307,91.9344678 31.021749,88.2811818 C31.1021672,84.6278957 33.0633877,81.2765884 36.2095465,79.4187628 L92.2495761,47.0906276 Z" fill="url(#stdlib-linearGradient-3)"></path>
						<path d="M26.0046351,91.7178309 C20.6363068,88.3927826 17.3916767,82.5107623 17.4409124,76.1987505 C17.4885069,69.8850976 20.8250435,64.0539541 26.2442486,60.8142476 L8.81154217,70.8402694 C3.35951328,73.9815046 0,79.7962362 0,86.0885537 C0,92.3808712 3.35951328,98.1939616 8.81154217,101.336838 L24.1500918,110.18941 L71.1209127,137.277229 L71.1209127,127.526927 C70.9535114,121.241175 67.4528559,115.519991 61.9335383,112.511692 L36.8085803,98.023278 C36.4540836,97.8427472 36.1110751,97.6425222 35.779555,97.4242441 L26.0046351,91.7178309 Z" fill="#00AEEF"></path>
						<path d="M92.2495761,47.0906276 L114.779815,34.0858483 C120.225279,30.9380483 123.578227,25.1265991 123.578227,18.837564 C123.578227,12.5468877 120.225279,6.73543846 114.779815,3.5892797 L108.653257,0 C110.747414,5.65061272 108.953595,12.0085778 104.213842,15.732435 L71.1209127,34.87526 L26.2442486,60.8011181 C20.8250435,64.0424658 17.4885069,69.8736092 17.4403599,76.185621 C17.3916767,82.499274 20.6363068,88.3812943 26.0046351,91.7047014 L35.8156612,97.3651613 C32.753203,95.3694758 30.9413307,91.9344678 31.021749,88.2811818 C31.1021672,84.6278957 33.0633877,81.2765884 36.2095465,79.4187628 L92.2495761,47.0906276 Z" fill="url(#stdlib-linearGradient-3)"></path>
				</g>
		</g>
</svg>

<svg viewBox="0 0 512 159" xmlns="http://www.w3.org/2000/svg" xmlns:xlink="http://www.w3.org/1999/xlink"><defs><linearGradient id="a" x1="32.901%" x2="85.888%" y1="78.13%" y2="33.994%"><stop offset="0%" stop-color="#A4681D"/><stop offset="31%" stop-color="#E18F2F"/><stop offset="100%" stop-color="#F0AD3E"/></linearGradient><linearGradient id="b" x1="-5.517%" x2="87.603%" y1="75.391%" y2="17.059%"><stop offset="0%" stop-color="#F0AD3E"/><stop offset="69%" stop-color="#E18F2F"/><stop offset="100%" stop-color="#A4681D"/></linearGradient><linearGradient id="c" x1="32.901%" x2="85.888%" y1="78.13%" y2="33.994%" xlink:href="#a"/><linearGradient id="d" x1="-5.517%" x2="87.603%" y1="75.391%" y2="17.059%" xlink:href="#b"/><linearGradient id="e" x1="-.003%" x2="100.006%" y1="50.023%" y2="50.023%"><stop offset="0%" stop-color="#006991"/><stop offset="25%" stop-color="#008BBF"/><stop offset="62%" stop-color="#008BBF"/><stop offset="100%" stop-color="#00AEEF"/></linearGradient><linearGradient id="f" x1="-.003%" x2="100.006%" y1="50.023%" y2="50.023%" xlink:href="#e"/><path id="h" d="M97.93 107.16l-11.73-6.78c3.4 1.91 5.47 5.54 5.38 9.44 -.09 3.9-2.32 7.43-5.81 9.19l-25.09 14.54c-5.54 3.01-9.05 8.75-9.19 15.06v9.75l46.92-27.09c4.15-2.65 6.63-7.27 6.53-12.2 -.11-4.93-2.78-9.45-7.04-11.91v-.05Z"/><path id="g" d="M51.51-.001l-24.24 13.93c-3.09 1.8-5.76 4.25-7.82 7.17 -2.97 4.13-2.97 9.69 0 13.83 2.07 2.89 4.73 5.3 7.81 7.08l16.08 9.28c-.77-.57-1.49-1.2-2.14-1.9 -5.52-5.97-5.16-15.27.8-20.79 8.9-5.93 13.11-18.63 9.48-28.65Z"/><path id="j" d="M26 91.71c-5.37-3.33-8.62-9.21-8.57-15.52 .04-6.32 3.38-12.15 8.8-15.39L8.79 70.82C3.33 73.96-.03 79.77-.03 86.06c0 6.29 3.35 12.1 8.81 15.24l15.33 8.85 46.97 27.08v-9.76c-.17-6.29-3.67-12.01-9.19-15.02L36.76 97.96c-.36-.19-.7-.39-1.03-.6l-9.78-5.71Z"/><path id="i" d="M27.27 41.97c-3.08-1.78-5.75-4.2-7.82-7.09 -2.97-4.14-2.97-9.7 0-13.84 2.06-2.91 4.73-5.33 7.81-7.12L8.78 24.68C3.36 27.91.02 33.75-.03 40.06c-.05 6.31 3.19 12.19 8.56 15.51l89.37 51.6c4.26 2.46 6.93 6.97 7.03 11.9 .1 4.92-2.38 9.54-6.54 12.19l15.33-8.86c5.44-3.15 8.8-8.96 8.8-15.25 0-6.29-3.36-12.11-8.81-15.25L27.2 41.91Z"/><path id="k" d="M92.24 47.09l22.53-13.01c5.44-3.15 8.79-8.96 8.79-15.25 0-6.3-3.36-12.11-8.8-15.25l-6.13-3.59c2.09 5.65.3 12-4.44 15.73l-33.1 19.14 -44.88 25.92c-5.42 3.24-8.76 9.07-8.81 15.38 -.05 6.31 3.19 12.19 8.56 15.51l9.81 5.66c-3.07-2-4.88-5.44-4.8-9.09 .08-3.66 2.04-7.01 5.18-8.87l56.04-32.33Z"/></defs><path fill="#F0AD3E" d="M193.71 48.34c8.24 0 16.03 2.37 23.37 7.11l-5.65 10.93c-5.83-3.78-12.14-5.67-18.95-5.67 -3.59 0-6.5.63-8.74 1.91 -2.24 1.27-3.36 3.18-3.36 5.72 0 2.28 1.16 3.95 3.49 5 1.61.78 3.87 1.53 6.78 2.24 2.91.7 5.48 1.4 7.72 2.1 2.23.7 4.41 1.49 6.51 2.36 2.1.87 4.36 2.1 6.78 3.68 4.83 3.16 7.25 8.07 7.25 14.75 0 6.67-2.47 12-7.4 16 -4.93 3.99-11.25 5.99-18.95 5.99 -5.2 0-10.6-.93-16.2-2.77 -5.6-1.85-10.55-4.44-14.85-7.78l7.25-11.47c8.33 6.14 16.39 9.22 24.18 9.22 3.4 0 6.09-.77 8.06-2.31 1.97-1.54 2.95-3.49 2.95-5.87 0-3.52-4.75-6.68-14.25-9.49 -.72-.27-1.26-.44-1.62-.53 -14.88-3.96-22.31-10.54-22.31-19.76 0-6.5 2.57-11.71 7.72-15.61 5.15-3.91 11.84-5.87 20.08-5.87Zm57.68-20.95v21.99h18.81v11.85h-18.82v35.56c0 3.33.89 5.99 2.68 7.96 1.79 1.97 4.29 2.96 7.52 2.96 3.22 0 6.31-1.54 9.27-4.62l6.18 10.4c-5.29 4.65-11.13 6.98-17.54 6.98 -6.41 0-11.87-2.18-16.4-6.53 -4.53-4.35-6.79-10.21-6.79-17.59V61.17h-9.01V49.31h9v-22h15.04Zm101.35-5.67v97.74h-15.05v-10.54c-5.56 7.72-13.67 11.59-24.33 11.59 -9.05 0-16.93-3.34-23.65-10.02 -6.72-6.68-10.08-15.46-10.08-26.35s3.44-19.59 10.34-26.09c6.89-6.5 15.11-9.75 24.65-9.75 9.53 0 17.22 3.95 23.04 11.85V21.68h15.04Zm-36.15 39.51c-6.01 0-11.16 2.23-15.46 6.71 -4.3 4.47-6.45 10.07-6.45 16.79 0 6.71 2.19 12.18 6.58 16.4 4.38 4.21 9.54 6.32 15.45 6.32s10.92-2.13 15.04-6.39c4.12-4.26 6.18-9.73 6.18-16.41s-2.07-12.26-6.19-16.74c-4.13-4.48-9.19-6.72-15.19-6.72Z"/><path fill="#00AEEF" d="M453.95 21.73v39.91c5.91-8.88 13.65-13.31 23.24-13.31 9.58 0 17.78 3.24 24.58 9.74 6.8 6.49 10.21 15.14 10.21 25.95 0 10.8-3.39 19.58-10.15 26.34 -6.77 6.76-14.65 10.14-23.65 10.14 -9.01 0-17.09-3.87-24.26-11.6v10.53h-15.05V21.68h15.04Zm-67.56 0v97.74h-15.05V21.72h15.04Zm33.75 27.66v70.07h-15.05V49.38h15.04Zm54.89 11.85c-6.01 0-11.07 2.21-15.19 6.65 -4.13 4.43-6.19 9.98-6.19 16.66 0 6.67 2.06 12.14 6.18 16.4 4.12 4.25 9.13 6.38 15.04 6.38 5.91 0 11.06-2.11 15.45-6.33 4.38-4.22 6.58-9.69 6.58-16.4 0-6.72-2.15-12.3-6.45-16.74 -4.3-4.44-9.45-6.66-15.46-6.66Zm-62.29-41.76c2.59 0 4.83.92 6.71 2.76 1.88 1.84 2.82 4.03 2.82 6.58 0 2.54-.95 4.74-2.83 6.58 -1.89 1.84-4.13 2.76-6.72 2.76 -2.6 0-4.84-.93-6.72-2.77 -1.89-1.85-2.83-4.04-2.83-6.59s.94-4.75 2.82-6.59c1.88-1.85 4.11-2.77 6.71-2.77Z"/><g transform="translate(19.6051 0)"><use fill="url(#a)" xlink:href="#g"/><use fill="url(#b)" xlink:href="#h"/><use fill="#F0AD3E" xlink:href="#i"/><use fill="url(#c)" xlink:href="#g"/><use fill="url(#d)" xlink:href="#h"/><use fill="#F0AD3E" xlink:href="#i"/></g><g transform="translate(0 21.0696)"><use fill="#00AEEF" xlink:href="#j"/><use fill="url(#e)" xlink:href="#k"/><use fill="#00AEEF" xlink:href="#j"/><use fill="url(#f)" xlink:href="#k"/></g></svg>
